public/assets/images/icons/yellow/remove/folder-edit-empty2.svg

<svg width="16" height="16" xmlns="http://www.w3.org/2000/svg" viewBox="0 0 16 16" shape-rendering="geometricPrecision" fill="#ffad00"><defs><mask id="a"><rect fill="#fff" width="100%" height="100%"/><path fill="#000" d="M8.986 1.143H17v3.565H8.986z"/></mask></defs><path d="M9.986 2.143H16v1.565H9.986z" fill="#cb1800"/><path mask="url(#a)" d="M7.394 4.755l-.816-1.923h-3.78l-.816 1.923H.861V14h14.278V4.755H7.394zm-1.226 8.237l-.081-.852.736.293-.655.559zm1.272-1.08l-1.443-.579L7.556 7.44 9 8.019l-1.56 3.893zm1.952-4.87l-.233.58-1.444-.58.232-.578a.778.778 0 0 1 1.445.578z"/></svg>

<?xml version="1.0"?><!DOCTYPE svg PUBLIC "-//W3C//DTD SVG 1.1//EN" "http://www.w3.org/Graphics/SVG/1.1/DTD/svg11.dtd"><svg width="16px" height="16px" xmlns="http://www.w3.org/2000/svg" viewBox="0 0 16 16" shape-rendering="geometricPrecision" fill="#ffad00"><defs><mask id="remove-path"><rect fill="#fff" width="100%" height="100%"/><rect x="8.986" y="1.143" width="8.014" height="3.565" fill="#000"/></mask></defs><g fill="#cb1800"><rect x="9.986" y="2.143" width="6.014" height="1.565"/></g><path mask="url(#remove-path)" d="M7.394,4.755L6.578,2.832H2.798L1.982,4.755H0.861V14h14.278V4.755H7.394z M6.168,12.992 L6.087,12.14l0.736,0.293L6.168,12.992z M7.44,11.912l-1.443-0.579L7.556,7.44L9,8.019L7.44,11.912z M9.392,7.042l-0.233,0.58 l-1.444-0.58l0.232-0.578c0.163-0.396,0.612-0.588,1.01-0.428C9.354,6.193,9.548,6.644,9.392,7.042L9.392,7.042z"/></svg>
